src/assets/duotone/Square3d.svg

<svg width="24" height="24" viewBox="0 0 24 24"  xmlns="http://www.w3.org/2000/svg">
<path opacity="0.4" d="M16.1898 2.33008H7.81976C4.17976 2.33008 2.00977 4.50008 2.00977 8.14008V16.5101C2.00977 20.1501 4.17976 22.3201 7.81976 22.3201H16.1898C19.8298 22.3201 21.9998 20.1501 21.9998 16.5101V8.15008C21.9998 4.51008 19.8298 2.33008 16.1898 2.33008Z" />
<path d="M16.3999 8.20996L12.6399 6.17996C12.2399 5.96996 11.7699 5.96996 11.3699 6.17996L7.60989 8.20996C7.33989 8.35996 7.16992 8.64996 7.16992 8.97996C7.16992 9.30996 7.33989 9.59996 7.60989 9.74996L11.3699 11.78C11.5699 11.89 11.7899 11.94 12.0099 11.94C12.2299 11.94 12.4499 11.89 12.6499 11.78L16.4099 9.74996C16.6799 9.59996 16.8499 9.30996 16.8499 8.97996C16.8399 8.64996 16.6699 8.35996 16.3999 8.20996Z" />
<path d="M10.7402 12.4699L7.24023 10.7199C6.97023 10.5899 6.66024 10.5999 6.40024 10.7599C6.14024 10.9199 5.99023 11.1899 5.99023 11.4899V14.7999C5.99023 15.3699 6.31025 15.8899 6.82025 16.1399L10.3203 17.8899C10.4403 17.9499 10.5702 17.9799 10.7102 17.9799C10.8702 17.9799 11.0202 17.9399 11.1602 17.8499C11.4202 17.6899 11.5703 17.4199 11.5703 17.1199V13.8099C11.5703 13.2399 11.2602 12.7299 10.7402 12.4699Z" />
<path d="M17.5899 10.7599C17.3299 10.5999 17.0199 10.5899 16.7499 10.7199L13.2499 12.4699C12.7399 12.7299 12.4199 13.2399 12.4199 13.8099V17.1199C12.4199 17.4199 12.5699 17.6899 12.8299 17.8499C12.9699 17.9399 13.1199 17.9799 13.2799 17.9799C13.4099 17.9799 13.5399 17.9499 13.6699 17.8899L17.1699 16.1399C17.6799 15.8799 17.9999 15.3699 17.9999 14.7999V11.4899C17.9999 11.1899 17.8499 10.9199 17.5899 10.7599Z" />
</svg>

<?xml version="1.0" encoding="UTF-8"?>
<svg width="24" height="24" viewBox="0 0 24 24" xmlns="http://www.w3.org/2000/svg">
 <path d="m16.19 2.3301h-8.37c-3.64 0-5.81 2.17-5.81 5.81v8.37c0 3.64 2.17 5.81 5.81 5.81h8.37c3.64 0 5.81-2.17 5.81-5.81v-8.36c0-3.64-2.17-5.82-5.81-5.82z" opacity=".4"/>
 <path d="m16.4 8.21-3.76-2.03c-0.4-0.21-0.87-0.21-1.27 0l-3.76 2.03c-0.27 0.15-0.43997 0.44-0.43997 0.77s0.16997 0.62 0.43997 0.77l3.76 2.03c0.2 0.11 0.42 0.16 0.64 0.16s0.44-0.05 0.64-0.16l3.76-2.03c0.27-0.15 0.44-0.44 0.44-0.77-0.01-0.33-0.18-0.62-0.45-0.77z"/>
 <path d="m10.74 12.47-3.5-1.75c-0.27-0.13-0.57999-0.12-0.83999 0.04s-0.41001 0.43-0.41001 0.73v3.31c0 0.57 0.32002 1.09 0.83002 1.34l3.5 1.75c0.12 0.06 0.2499 0.09 0.3899 0.09 0.16 0 0.31-0.04 0.45-0.13 0.26-0.16 0.4101-0.43 0.4101-0.73v-3.31c0-0.57-0.3101-1.08-0.8301-1.34z"/>
 <path d="m17.59 10.76c-0.26-0.16-0.57-0.17-0.84-0.04l-3.5 1.75c-0.51 0.26-0.83 0.77-0.83 1.34v3.31c0 0.3 0.15 0.57 0.41 0.73 0.14 0.09 0.29 0.13 0.45 0.13 0.13 0 0.26-0.03 0.39-0.09l3.5-1.75c0.51-0.26 0.83-0.77 0.83-1.34v-3.31c0-0.3-0.15-0.57-0.41-0.73z"/>
</svg>
